Sources/FrostedUI/Resources/Icons.xcassets/cameraAddFilled20.imageset/camera-add-filled-20.svg

<svg width="20" height="20" viewBox="0 0 20 20" fill="none" xmlns="http://www.w3.org/2000/svg" data-fui-icon="true">
  <path
    d="M11.8945 1C12.7441 1.00002 13.5557 1.28772 14.207 1.79785C14.2341 1.81904 14.25 1.85237 14.25 1.88672C14.2498 1.94919 14.1992 1.9998 14.1367 2H14C12.7574 2 11.75 3.00736 11.75 4.25C11.75 5.49264 12.7574 6.5 14 6.5C14.1381 6.5 14.25 6.61193 14.25 6.75C14.25 7.99264 15.2574 9 16.5 9C17.7426 9 18.75 7.99264 18.75 6.75C18.75 6.61193 18.8619 6.5 19 6.5C19.017 6.5 19.0339 6.49941 19.0508 6.49902C19.3945 6.49113 19.75 6.68645 19.75 7.03027V15.25C19.75 17.3211 18.0711 19 16 19H4C1.92893 19 0.25 17.3211 0.25 15.25V7.03027C0.25 5.35693 1.60693 4 3.28027 4C3.79163 3.99986 4.26907 3.74385 4.55273 3.31836L4.98535 2.66992C5.68083 1.6267 6.85168 1.00003 8.10547 1H11.8945ZM10 6.5C7.65279 6.5 5.75 8.40279 5.75 10.75C5.75 13.0972 7.65279 15 10 15C12.3472 15 14.25 13.0972 14.25 10.75C14.25 8.40279 12.3472 6.5 10 6.5ZM10 8C11.5188 8 12.75 9.23122 12.75 10.75C12.75 12.2688 11.5188 13.5 10 13.5C8.48122 13.5 7.25 12.2688 7.25 10.75C7.25 9.23122 8.48122 8 10 8ZM16.5 0.75C17.0523 0.75 17.5 1.19772 17.5 1.75V3.25H19C19.5523 3.25 20 3.69772 20 4.25C20 4.80228 19.5523 5.25 19 5.25H17.5V6.75C17.5 7.30228 17.0523 7.75 16.5 7.75C15.9477 7.75 15.5 7.30228 15.5 6.75V5.25H14C13.4477 5.25 13 4.80228 13 4.25C13 3.69772 13.4477 3.25 14 3.25H15.5V1.75C15.5 1.19772 15.9477 0.75 16.5 0.75Z"
    fill="currentColor"
  />
</svg>

<svg xmlns="http://www.w3.org/2000/svg" width="20" height="20" fill="none" data-fui-icon="true" viewBox="0 0 20 20"><path fill="currentColor" d="M11.895 1c.85 0 1.66.288 2.312.798a.113.113 0 0 1-.07.202H14a2.25 2.25 0 0 0 0 4.5.25.25 0 0 1 .25.25 2.25 2.25 0 0 0 4.5 0A.25.25 0 0 1 19 6.5l.05-.001c.345-.008.7.187.7.531v8.22A3.75 3.75 0 0 1 16 19H4a3.75 3.75 0 0 1-3.75-3.75V7.03A3.03 3.03 0 0 1 3.28 4a1.53 1.53 0 0 0 1.273-.682l.432-.648A3.75 3.75 0 0 1 8.105 1zM10 6.5a4.25 4.25 0 1 0 0 8.5 4.25 4.25 0 0 0 0-8.5M10 8a2.75 2.75 0 1 1 0 5.5A2.75 2.75 0 0 1 10 8M16.5.75a1 1 0 0 1 1 1v1.5H19a1 1 0 1 1 0 2h-1.5v1.5a1 1 0 1 1-2 0v-1.5H14a1 1 0 1 1 0-2h1.5v-1.5a1 1 0 0 1 1-1"/></svg>
